src/16/actions/irc-channel-active.svg

<svg xmlns="http://www.w3.org/2000/svg" viewBox="0 0 16 16">
  <defs id="defs3051">
    <style type="text/css" id="current-color-scheme">
      .ColorScheme-Text {
        color:#5d656b;
      }
      .ColorScheme-PositiveText {
        color:#27ae60;
      }
      </style>
  </defs>
 <path style="fill:currentColor;fill-opacity:1;stroke:none" 
     d="m 4,2 0,2 -2,0 0,1 2,0 0,6 -2,0 0,1 2,0 0,2 1,0 0,-2 6,0 0,2 1,0 0,-2 2,0 0,-1 -2,0 0,-6 2.310547,0 0,-1 L 12,4 12,2 11,2 11,4 5,4 5,2 4,2 Z m 1,3 6,0 0,6 -6,0 0,-6 z"
     class="ColorScheme-Text"
     />
  <path
      style="fill:currentColor;fill-opacity:1;stroke:none" 
     class="ColorScheme-PositiveText"
   d="m 10.499991,6.9999781 c 1.939,0 3.5,1.561 3.5,3.4999999 0,1.939 -1.561,3.5 -3.5,3.5 -1.939,0 -3.5,-1.561 -3.5,-3.5 0,-1.9389999 1.561,-3.4999999 3.5,-3.4999999 z"/>
</svg>

<svg xmlns="http://www.w3.org/2000/svg" viewBox="0 0 16 16"><path d="M4 2v2H2v1h2v6H2v1h2v2h1v-2h6v2h1v-2h2v-1h-2V5h2.31V4H12V2h-1v2H5V2H4zm1 3h6v6H5V5z" fill="currentColor" color="#5d656b"/><path d="M10.5 7c1.939 0 3.5 1.561 3.5 3.5S12.439 14 10.5 14A3.492 3.492 0 0 1 7 10.5C7 8.561 8.561 7 10.5 7z" fill="currentColor" color="#27ae60"/></svg>
